img/designline/designline.svg

<svg fill="none" height="500" viewBox="0 0 800 500" width="800" xmlns="http://www.w3.org/2000/svg"><path d="m0 0h800v500h-800z" fill="#eee8e5"/><g fill="#ea5501"><path d="m183.4 206.58c24.576 0 33.408 15.744 33.408 34.56 0 21.12-13.728 31.872-29.376 31.872h-9.024c-8.16 0-11.808-1.248-11.808-7.488v-58.944zm-36.48-4.224v3.168c7.2.288 11.904 1.248 11.904 7.968v52.608c0 6.72-4.704 7.68-11.904 7.968v3.168h40.608c20.16 0 37.92-13.92 37.92-39.552 0-18.24-12-35.328-40.032-35.328z"/><path d="m258.622 226.068c-14.784 0-24.672 11.424-24.672 27.744 0 12.768 8.544 24.384 24.48 24.384 12 0 18.528-6.528 21.216-13.92l-2.4-.864c-4.32 5.472-8.736 8.64-16.992 8.64-12.384 0-20.544-9.312-19.584-23.616h38.784v-2.304c0-11.424-7.104-20.064-20.832-20.064zm-1.92 4.896c9.6 0 14.784 5.76 14.784 13.344h-30.144c1.632-7.872 7.488-13.344 15.36-13.344z"/><path d="m304.279 278.196c11.328 0 18.72-5.568 18.72-14.016 0-8.544-4.608-12.576-13.632-15.264l-7.296-2.208c-5.472-1.632-8.256-3.552-8.256-8.256 0-5.664 4.224-8.16 9.792-8.16 7.488 0 12.096 3.648 13.536 12.288h3.168v-12.384c-4.512-2.496-9.696-4.128-16.224-4.128-10.176 0-16.8 5.376-16.8 13.344 0 8.256 4.608 11.52 12.48 13.92l6.528 2.016c5.856 1.92 10.176 3.84 10.176 9.504 0 6.432-5.088 9.12-11.712 9.12-8.256 0-13.344-4.8-15.456-13.632h-2.88l.576 12.96c3.744 2.784 9.792 4.896 17.28 4.896z"/><path d="m347.299 236.532.48-10.272h-3.168l-12.288 4.608v1.92l7.68 2.496v33.696c0 4.416-3.744 4.896-8.16 5.472v2.784h23.616v-2.784c-4.416-.576-8.16-1.056-8.16-5.472zm-9.984-25.824c0 3.168 2.4 5.568 5.568 5.568s5.664-2.4 5.664-5.568-2.496-5.664-5.664-5.664-5.568 2.496-5.568 5.664z"/><path d="m385.474 226.068c-12.48 0-21.312 7.2-21.312 19.2 0 6.144 2.688 10.848 7.68 14.208-4.608 2.208-8.16 4.704-8.16 9.888 0 3.456 1.824 6.432 5.856 7.776-5.184 2.4-9.024 5.184-9.024 10.848 0 6.912 6.528 13.248 22.656 13.248 18.144 0 28.704-7.488 28.704-17.184 0-8.448-5.856-12.672-15.072-12.672h-22.176c-3.072 0-4.8-1.536-4.8-4.32s1.92-4.416 4.32-6.336c2.016.864 6.432 1.824 10.464 1.824 11.52 0 20.256-6.24 20.256-17.664 0-6.144-3.552-11.328-8.256-13.344v-.192l10.944 1.44h3.648v-5.76l-17.568.384c-2.112-.768-4.992-1.344-8.16-1.344zm10.176 51.84c5.856 0 9.888 1.92 9.888 7.2 0 7.68-7.968 12.096-20.448 12.096-9.696 0-17.28-3.744-17.28-10.848 0-3.552 1.248-6.048 4.032-8.448zm-9.696-19.2c-9.312 0-14.208-6.432-14.208-15.84 0-6.912 3.84-12.384 11.04-12.384 9.312 0 14.208 6.432 14.208 15.84 0 6.912-3.84 12.384-11.04 12.384z"/><path d="m461.104 268.98c0 4.416-3.744 4.896-8.16 5.472v2.784h23.616v-2.784c-4.416-.576-8.16-1.056-8.16-5.472v-27.168c0-11.424-6.72-15.744-16.032-15.744-8.16 0-15.552 5.28-19.776 9.888l.48-9.696h-3.168l-12.288 4.608v1.92l7.68 2.496v33.696c0 4.416-3.744 4.896-8.16 5.472v2.784h23.616v-2.784c-4.416-.576-8.16-1.056-8.16-5.472v-29.184c4.416-4.032 11.52-7.584 17.376-7.584 6.816 0 11.136 2.784 11.136 10.656z"/><path d="m496.904 207.732.48-8.256h-3.168l-12.288 5.184v1.824l7.68 1.536v60.96c0 4.416-3.744 4.896-8.16 5.472v2.784h23.616v-2.784c-4.416-.576-8.16-1.056-8.16-5.472z"/><path d="m527.917 236.532.48-10.272h-3.168l-12.288 4.608v1.92l7.68 2.496v33.696c0 4.416-3.744 4.896-8.16 5.472v2.784h23.616v-2.784c-4.416-.576-8.16-1.056-8.16-5.472zm-9.984-25.824c0 3.168 2.4 5.568 5.568 5.568s5.664-2.4 5.664-5.568-2.496-5.664-5.664-5.664-5.568 2.496-5.568 5.664z"/><path d="m587.404 268.98c0 4.416-3.744 4.896-8.16 5.472v2.784h23.616v-2.784c-4.416-.576-8.16-1.056-8.16-5.472v-27.168c0-11.424-6.72-15.744-16.032-15.744-8.16 0-15.552 5.28-19.776 9.888l.48-9.696h-3.168l-12.288 4.608v1.92l7.68 2.496v33.696c0 4.416-3.744 4.896-8.16 5.472v2.784h23.616v-2.784c-4.416-.576-8.16-1.056-8.16-5.472v-29.184c4.416-4.032 11.52-7.584 17.376-7.584 6.816 0 11.136 2.784 11.136 10.656z"/><path d="m632.516 226.068c-14.784 0-24.672 11.424-24.672 27.744 0 12.768 8.544 24.384 24.48 24.384 12 0 18.528-6.528 21.216-13.92l-2.4-.864c-4.32 5.472-8.736 8.64-16.992 8.64-12.384 0-20.544-9.312-19.584-23.616h38.784v-2.304c0-11.424-7.104-20.064-20.832-20.064zm-1.92 4.896c9.6 0 14.784 5.76 14.784 13.344h-30.144c1.632-7.872 7.488-13.344 15.36-13.344z"/></g><path d="m146.92 288.335h216.544" stroke="#ea5501" stroke-width="3.17"/><path d="m409.134 288.335h244.406" stroke="#ea5501" stroke-width="3.17"/></svg>

<svg width="800" height="500" viewBox="0 0 800 500" fill="none" xmlns="http://www.w3.org/2000/svg">
<rect width="800" height="500" fill="#EEE8E5"/>
<path d="M183.4 206.58C207.976 206.58 216.808 222.324 216.808 241.14C216.808 262.26 203.08 273.012 187.432 273.012H178.408C170.248 273.012 166.6 271.764 166.6 265.524V206.58H183.4ZM146.92 202.356V205.524C154.12 205.812 158.824 206.772 158.824 213.492V266.1C158.824 272.82 154.12 273.78 146.92 274.068V277.236H187.528C207.688 277.236 225.448 263.316 225.448 237.684C225.448 219.444 213.448 202.356 185.416 202.356H146.92Z" fill="#EA5501"/>
<path d="M258.622 226.068C243.838 226.068 233.95 237.492 233.95 253.812C233.95 266.58 242.494 278.196 258.43 278.196C270.43 278.196 276.958 271.668 279.646 264.276L277.246 263.412C272.926 268.884 268.51 272.052 260.254 272.052C247.87 272.052 239.71 262.74 240.67 248.436H279.454V246.132C279.454 234.708 272.35 226.068 258.622 226.068ZM256.702 230.964C266.302 230.964 271.486 236.724 271.486 244.308H241.342C242.974 236.436 248.83 230.964 256.702 230.964Z" fill="#EA5501"/>
<path d="M304.279 278.196C315.607 278.196 322.999 272.628 322.999 264.18C322.999 255.636 318.391 251.604 309.367 248.916L302.071 246.708C296.599 245.076 293.815 243.156 293.815 238.452C293.815 232.788 298.039 230.292 303.607 230.292C311.095 230.292 315.703 233.94 317.143 242.58H320.311V230.196C315.799 227.7 310.615 226.068 304.087 226.068C293.911 226.068 287.287 231.444 287.287 239.412C287.287 247.668 291.895 250.932 299.767 253.332L306.295 255.348C312.151 257.268 316.471 259.188 316.471 264.852C316.471 271.284 311.383 273.972 304.759 273.972C296.503 273.972 291.415 269.172 289.303 260.34H286.423L286.999 273.3C290.743 276.084 296.791 278.196 304.279 278.196Z" fill="#EA5501"/>
<path d="M347.299 236.532L347.779 226.26H344.611L332.323 230.868V232.788L340.003 235.284V268.98C340.003 273.396 336.259 273.876 331.843 274.452V277.236H355.459V274.452C351.043 273.876 347.299 273.396 347.299 268.98V236.532ZM337.315 210.708C337.315 213.876 339.715 216.276 342.883 216.276C346.051 216.276 348.547 213.876 348.547 210.708C348.547 207.54 346.051 205.044 342.883 205.044C339.715 205.044 337.315 207.54 337.315 210.708Z" fill="#EA5501"/>
<path d="M385.474 226.068C372.994 226.068 364.162 233.268 364.162 245.268C364.162 251.412 366.85 256.116 371.842 259.476C367.234 261.684 363.682 264.18 363.682 269.364C363.682 272.82 365.506 275.796 369.538 277.14C364.354 279.54 360.514 282.324 360.514 287.988C360.514 294.9 367.042 301.236 383.17 301.236C401.314 301.236 411.874 293.748 411.874 284.052C411.874 275.604 406.018 271.38 396.802 271.38H374.626C371.554 271.38 369.826 269.844 369.826 267.06C369.826 264.276 371.746 262.644 374.146 260.724C376.162 261.588 380.578 262.548 384.61 262.548C396.13 262.548 404.866 256.308 404.866 244.884C404.866 238.74 401.314 233.556 396.61 231.54V231.348L407.554 232.788H411.202V227.028L393.634 227.412C391.522 226.644 388.642 226.068 385.474 226.068ZM395.65 277.908C401.506 277.908 405.538 279.828 405.538 285.108C405.538 292.788 397.57 297.204 385.09 297.204C375.394 297.204 367.81 293.46 367.81 286.356C367.81 282.804 369.058 280.308 371.842 277.908H395.65ZM385.954 258.708C376.642 258.708 371.746 252.276 371.746 242.868C371.746 235.956 375.586 230.484 382.786 230.484C392.098 230.484 396.994 236.916 396.994 246.324C396.994 253.236 393.154 258.708 385.954 258.708Z" fill="#EA5501"/>
<path d="M461.104 268.98C461.104 273.396 457.36 273.876 452.944 274.452V277.236H476.56V274.452C472.144 273.876 468.4 273.396 468.4 268.98V241.812C468.4 230.388 461.68 226.068 452.368 226.068C444.208 226.068 436.816 231.348 432.592 235.956L433.072 226.26H429.904L417.616 230.868V232.788L425.296 235.284V268.98C425.296 273.396 421.552 273.876 417.136 274.452V277.236H440.752V274.452C436.336 273.876 432.592 273.396 432.592 268.98V239.796C437.008 235.764 444.112 232.212 449.968 232.212C456.784 232.212 461.104 234.996 461.104 242.868V268.98Z" fill="#EA5501"/>
<path d="M496.904 207.732L497.384 199.476H494.216L481.928 204.66V206.484L489.608 208.02V268.98C489.608 273.396 485.864 273.876 481.448 274.452V277.236H505.064V274.452C500.648 273.876 496.904 273.396 496.904 268.98V207.732Z" fill="#EA5501"/>
<path d="M527.917 236.532L528.397 226.26H525.229L512.941 230.868V232.788L520.621 235.284V268.98C520.621 273.396 516.877 273.876 512.461 274.452V277.236H536.077V274.452C531.661 273.876 527.917 273.396 527.917 268.98V236.532ZM517.933 210.708C517.933 213.876 520.333 216.276 523.501 216.276C526.669 216.276 529.165 213.876 529.165 210.708C529.165 207.54 526.669 205.044 523.501 205.044C520.333 205.044 517.933 207.54 517.933 210.708Z" fill="#EA5501"/>
<path d="M587.404 268.98C587.404 273.396 583.66 273.876 579.244 274.452V277.236H602.86V274.452C598.444 273.876 594.7 273.396 594.7 268.98V241.812C594.7 230.388 587.98 226.068 578.668 226.068C570.508 226.068 563.116 231.348 558.892 235.956L559.372 226.26H556.204L543.916 230.868V232.788L551.596 235.284V268.98C551.596 273.396 547.852 273.876 543.436 274.452V277.236H567.052V274.452C562.636 273.876 558.892 273.396 558.892 268.98V239.796C563.308 235.764 570.412 232.212 576.268 232.212C583.084 232.212 587.404 234.996 587.404 242.868V268.98Z" fill="#EA5501"/>
<path d="M632.516 226.068C617.732 226.068 607.844 237.492 607.844 253.812C607.844 266.58 616.388 278.196 632.324 278.196C644.324 278.196 650.852 271.668 653.54 264.276L651.14 263.412C646.82 268.884 642.404 272.052 634.148 272.052C621.764 272.052 613.604 262.74 614.564 248.436H653.348V246.132C653.348 234.708 646.244 226.068 632.516 226.068ZM630.596 230.964C640.196 230.964 645.38 236.724 645.38 244.308H615.236C616.868 236.436 622.724 230.964 630.596 230.964Z" fill="#EA5501"/>
<line x1="146.92" y1="288.335" x2="363.464" y2="288.335" stroke="#EA5501" stroke-width="3.17"/>
<line x1="409.134" y1="288.335" x2="653.54" y2="288.335" stroke="#EA5501" stroke-width="3.17"/>
</svg>
